Flat-Remix-Blue-Dark/apps/scalable/qutebrowser.svg

<svg xmlns="http://www.w3.org/2000/svg" xmlns:xlink="http://www.w3.org/1999/xlink" width="512" height="512" version="1.1" viewBox="0 0 384 384"> <defs> <filter id="alpha" width="100%" height="100%" x="0%" y="0%" filterUnits="objectBoundingBox"> <feColorMatrix in="SourceGraphic" type="matrix" values="0 0 0 0 1 0 0 0 0 1 0 0 0 0 1 0 0 0 1 0"/> </filter> <mask id="mask0"> <g filter="url(#alpha)"> <rect width="384" height="384" x="0" y="0" style="fill:rgb(0%,0%,0%);fill-opacity:0.101961"/> </g> </mask> <clipPath id="clip1"> <rect width="384" height="384" x="0" y="0"/> </clipPath> <g id="surface5" clip-path="url(#clip1)"> <path style="fill:rgb(100.000%,100.000%,100.000%)" d="M 192 24 C 98.929688 24 24 98.929688 24 192 C 24 192.679688 24.066406 193.34375 24.105469 194.015625 C 26.214844 102.804688 100.265625 30 192 30 C 283.734375 30 357.785156 102.804688 359.894531 194.015625 C 359.933594 193.34375 360 192.679688 360 192 C 360 98.929688 285.070312 24 192 24 Z M 192 24"/> </g> <mask id="mask1"> <g filter="url(#alpha)"> <rect width="384" height="384" x="0" y="0" style="fill:rgb(0%,0%,0%);fill-opacity:0.2"/> </g> </mask> <clipPath id="clip2"> <rect width="384" height="384" x="0" y="0"/> </clipPath> <g id="surface8" clip-path="url(#clip2)"> <path style="fill:rgb(0%,0%,0%)" d="M 359.894531 195.984375 C 357.785156 287.195312 283.734375 360 192 360 C 100.273438 360 26.226562 287.207031 24.105469 196.007812 C 24.070312 196.671875 24 197.328125 24 198 C 24 291.070312 98.929688 366 192 366 C 285.070312 366 360 291.070312 360 198 C 360 197.320312 359.933594 196.65625 359.894531 195.984375 Z M 359.894531 195.984375"/> </g> <mask id="mask2"> <g filter="url(#alpha)"> <rect width="384" height="384" x="0" y="0" style="fill:rgb(0%,0%,0%);fill-opacity:0.501961"/> </g> </mask> <clipPath id="clip3"> <rect width="384" height="384" x="0" y="0"/> </clipPath> <g id="surface11" clip-path="url(#clip3)"> <path style="fill:rgb(0%,0%,0%)" d="M 210.007812 72 C 203.359375 72 198.007812 77.351562 198.007812 84 L 198.007812 170.226562 L 185.257812 182.976562 C 180.800781 153.683594 155.628906 132.03125 126 132 C 92.863281 132 66 158.863281 66 192 C 66 225.136719 92.863281 252 126 252 C 138.992188 251.972656 151.625 247.730469 162 239.90625 L 162 300.003906 C 162 306.652344 167.351562 312.003906 174 312.003906 C 180.648438 312.003906 186 306.652344 186 300.003906 L 186 216.167969 L 199.078125 203.089844 C 204.40625 231.4375 229.152344 251.980469 257.996094 252 C 291.132812 252 317.996094 225.136719 317.996094 192 C 317.996094 158.863281 291.132812 132 257.996094 132 C 245.003906 132.027344 232.371094 136.273438 221.996094 144.097656 L 221.996094 84 C 221.996094 77.351562 216.644531 72 209.996094 72 Z M 126.007812 156 C 145.886719 156 162.007812 172.117188 162.007812 192 C 162.007812 211.882812 145.886719 228 126.007812 228 C 106.125 228 90.007812 211.882812 90.007812 192 C 90.007812 172.117188 106.125 156 126.007812 156 Z M 258.007812 156 C 277.886719 156 294.007812 172.117188 294.007812 192 C 294.007812 211.882812 277.886719 228 258.007812 228 C 238.125 228 222.007812 211.882812 222.007812 192 C 222.007812 172.117188 238.125 156 258.007812 156 Z M 258.007812 156"/> </g> </defs> <g> <path style="fill:rgb(21.176%,48.235%,94.117%)" d="M 360 192 C 360 99.214844 284.785156 24 192 24 C 99.214844 24 24 99.214844 24 192 C 24 284.785156 99.214844 360 192 360 C 284.785156 360 360 284.785156 360 192 Z M 360 192"/> <use mask="url(#mask0)" xlink:href="#surface5"/> <use mask="url(#mask1)" xlink:href="#surface8"/> <use mask="url(#mask2)" xlink:href="#surface11"/> </g> </svg>

<svg width="512" height="512" version="1.1" viewBox="0 0 384 384" xmlns="http://www.w3.org/2000/svg"><path d="m360 192c0-92.785-75.215-168-168-168s-168 75.215-168 168 75.215 168 168 168 168-75.215 168-168z" fill="#357aef"/><g stroke-width="1.3333"><path transform="scale(.75)" d="m32.062 251c-0.036438 1.6631-0.0625 3.3282-0.0625 5 0 123.71 100.29 224 224 224s224-100.29 224-224c0-1.6718-0.02606-3.3369-0.0625-5-2.66 121.4-101.9 219-223.94 219s-221.28-97.597-223.94-219z" opacity=".3"/><path transform="scale(.75)" d="m256 32c-123.71 0-224 100.29-224 224 0 1.6718 0.026062 3.3369 0.0625 5 2.66-121.4 101.9-219 223.94-219s221.28 97.597 223.94 219c0.03644-1.6631 0.0625-3.3282 0.0625-5 0-123.71-100.29-224-224-224z" fill="#fff" opacity=".2"/></g><path d="m210.01 71.998c-6.6484 0-12 5.3516-12 12v86.227l-12.75 12.75c-4.457-29.293-29.629-50.945-59.258-50.977-33.137 0-60 26.863-60 60s26.863 60 60 60c12.992-0.0273 25.625-4.2695 36-12.094v60.098c0 6.6484 5.3516 12 12 12 6.6484 0 12-5.3516 12-12v-83.836l13.078-13.078c5.3281 28.348 30.074 48.891 58.918 48.91 33.137 0 60-26.863 60-60 0-33.137-26.863-60-60-60-12.992 0.0273-25.625 4.2734-36 12.098v-60.098c0-6.6484-5.3516-12-12-12zm-84 84c19.879 0 36 16.117 36 36 0 19.883-16.121 36-36 36-19.883 0-36-16.117-36-36 0-19.883 16.117-36 36-36zm132 0c19.879 0 36 16.117 36 36 0 19.883-16.121 36-36 36-19.883 0-36-16.117-36-36 0-19.883 16.117-36 36-36z" opacity=".5"/></svg>
